X: 080347
T: Hills of Larraga
C: Mike Rafferty
Z: B.Black
R: jig
M: 6/8
L: 1/8
K: Dmix
A/F/ | FDD cAG | dcA A2 G | F2 D c2 A | dcA G2 G |
FDD cAA | dcA B/c/de | fef ded | cAF G2 :|
G | A2 d fed | cAB cde | dcA f2 d | cAF G2 G |
A2 d fed | cAG cde | fef ded | cAF G2 :|
